icons-rebrand/svg/select-all-bold.svg

<svg xmlns="http://www.w3.org/2000/svg" width="32" height="32" viewBox="0 0 32 32" fill="none"><path d="M19.6508 15.7593C20.0701 15.3998 20.1187 14.7685 19.7593 14.3492C19.3998 13.9299 18.7685 13.8813 18.3492 14.2407L12.0523 19.6381L9.70711 17.2929C9.31658 16.9024 8.68342 16.9024 8.29289 17.2929C7.90237 17.6834 7.90237 18.3166 8.29289 18.7071L11.2929 21.7071C11.6624 22.0766 12.2541 22.0993 12.6508 21.7593L19.6508 15.7593Z M12 4C9.79086 4 8 5.79086 8 8C5.79086 8 4 9.79086 4 12V24C4 26.2091 5.79086 28 8 28H20C22.2091 28 24 26.2091 24 24C26.2091 24 28 22.2091 28 20V8C28 5.79086 26.2091 4 24 4H12ZM12 6H24C25.1046 6 26 6.89543 26 8V20C26 21.1046 25.1046 22 24 22V12C24 9.79086 22.2091 8 20 8L10 8C10 6.89543 10.8954 6 12 6ZM20 10C21.1046 10 22 10.8954 22 12V24C22 25.1046 21.1046 26 20 26H8C6.89543 26 6 25.1046 6 24V12C6 10.8954 6.89543 10 8 10H20Z"/></svg>

<svg data-name="Layer 1" xmlns="http://www.w3.org/2000/svg" viewBox="0 0 32 32"><path d="M19.651 15.759a1 1 0 1 0-1.3-1.518l-6.3 5.4-2.344-2.348a1 1 0 0 0-1.414 1.414l3 3a1 1 0 0 0 1.358.052Z" style="fill:#0f0f0f"/><path d="M24 4H12a4 4 0 0 0-4 4 4 4 0 0 0-4 4v12a4 4 0 0 0 4 4h12a4 4 0 0 0 4-4 4 4 0 0 0 4-4V8a4 4 0 0 0-4-4Zm-2 20a2 2 0 0 1-2 2H8a2 2 0 0 1-2-2V12a2 2 0 0 1 2-2h12a2 2 0 0 1 2 2Zm4-4a2 2 0 0 1-2 2V12a4 4 0 0 0-4-4H10a2 2 0 0 1 2-2h12a2 2 0 0 1 2 2Z" style="fill-rule:evenodd;fill:#0f0f0f"/></svg>
